src/assets/icons/multicolor/email.multicolor.svg

<svg width="32" height="32" fill="none">
  <mask id="a" fill="#fff">
    <path d="M16 32c8.8365 0 16-7.1635 16-16 0-8.83655-7.1635-16-16-16C7.1634 0 0 7.16345 0 16c0 8.8366 7.1634 16 16 16zm0-1C7.72895 31 1 24.271 1 16S7.72895 1 16 1c8.2711 0 15 6.729 15 15s-6.729 15-15 15z"/>
  </mask>
  <path fill="#A2A2A2" d="M16 32c8.8365 0 16-7.1635 16-16 0-8.83655-7.1635-16-16-16C7.1634 0 0 7.16345 0 16c0 8.8366 7.1634 16 16 16zm0-1C7.72895 31 1 24.271 1 16S7.72895 1 16 1c8.2711 0 15 6.729 15 15s-6.729 15-15 15z"/>
  <path fill="#A2A2A2" d="M16 33c9.3888 0 17-7.6112 17-17h-2c0 8.2843-6.7157 15-15 15v2zm17-17c0-9.38883-7.6112-17-17-17v2c8.2843 0 15 6.71574 15 15h2zM16-1C6.61111-1-1 6.61117-1 16h2C1 7.71573 7.71569 1 16 1v-2zM-1 16c0 9.3888 7.61111 17 17 17v-2C7.71569 31 1 24.2843 1 16h-2zm17 14C8.28123 30 2 23.7188 2 16H0c0 8.8233 7.17666 16 16 16v-2zM2 16C2 8.28128 8.28124 2 16 2V0C7.17666 0 0 7.17672 0 16h2zM16 2c7.7188 0 14 6.28128 14 14h2c0-8.82328-7.1767-16-16-16v2zm14 14c0 7.7188-6.2812 14-14 14v2c8.8233 0 16-7.1767 16-16h-2z" mask="url(#a)"/>
  <mask id="b" width="14" height="14" x="9" y="9" fill="#000" maskUnits="userSpaceOnUse">
    <path fill="#fff" d="M9 9h14v14H9z"/>
    <path d="M16 10c-4.9221 0-6 3.9077-6 5.4135C10 19.5993 12.0394 22 15.5958 22c2.9269 0 3.7242-.3897 3.8057-.4338.1623-.0889.2183-.2852.1304-.4442-.0879-.159-.2934-.2196-.4611-.1385-.0071.0036-.7526.352-3.475.352-4.271 0-4.9089-3.7101-4.9089-5.922 0-.0473.0606-4.749 5.3131-4.749 4.6229 0 5.3131 2.9756 5.3131 4.749 0 3.2057-.9568 3.5765-1.6766 3.5765-1.0316 0-1.2687-.3163-1.2727-.4494v-.7259c.0021-.0188.0028-.0376.0023-.0573-.0001-.0031-.0022-.0059-.0023-.009v-4.68c0-.1837-.1536-.3323-.3435-.3323-.1898 0-.3434.1486-.3434.3323l.0001.366c-.3144-.2711-.9836-.6983-2.0812-.6983-1.7094 0-2.7675 1.634-2.7675 3.1476 0 2.2429.931 3.3802 2.7675 3.3802 1.0236 0 1.7582-.4711 2.0811-.7247-.0027.0915.0143.3512.2569.6062.3213.3378.8941.5091 1.7027.5091C22 19.6545 22 16.5735 22 15.4135 22 13.7857 21.4154 10 16 10zm-.4042 8.5994c-1.4391 0-2.0807-.8374-2.0807-2.7157 0-1.0013.6614-2.4831 2.0807-2.4831 1.2118 0 1.7256.6236 1.7451.6476.0083.0114.0177.0221.0278.0321.0966.0971.3082.3706.3082.5516l.0004.0019.0007 3.016c-.0668.0636-.1818.164-.3073.2676-.007.0068-.7073.682-1.7749.682z"/>
  </mask>
  <path fill="#A2A2A2" d="M16 10c-4.9221 0-6 3.9077-6 5.4135C10 19.5993 12.0394 22 15.5958 22c2.9269 0 3.7242-.3897 3.8057-.4338.1623-.0889.2183-.2852.1304-.4442-.0879-.159-.2934-.2196-.4611-.1385-.0071.0036-.7526.352-3.475.352-4.271 0-4.9089-3.7101-4.9089-5.922 0-.0473.0606-4.749 5.3131-4.749 4.6229 0 5.3131 2.9756 5.3131 4.749 0 3.2057-.9568 3.5765-1.6766 3.5765-1.0316 0-1.2687-.3163-1.2727-.4494v-.7259c.0021-.0188.0028-.0376.0023-.0573-.0001-.0031-.0022-.0059-.0023-.009v-4.68c0-.1837-.1536-.3323-.3435-.3323-.1898 0-.3434.1486-.3434.3323l.0001.366c-.3144-.2711-.9836-.6983-2.0812-.6983-1.7094 0-2.7675 1.634-2.7675 3.1476 0 2.2429.931 3.3802 2.7675 3.3802 1.0236 0 1.7582-.4711 2.0811-.7247-.0027.0915.0143.3512.2569.6062.3213.3378.8941.5091 1.7027.5091C22 19.6545 22 16.5735 22 15.4135 22 13.7857 21.4154 10 16 10zm-.4042 8.5994c-1.4391 0-2.0807-.8374-2.0807-2.7157 0-1.0013.6614-2.4831 2.0807-2.4831 1.2118 0 1.7256.6236 1.7451.6476.0083.0114.0177.0221.0278.0321.0966.0971.3082.3706.3082.5516l.0004.0019.0007 3.016c-.0668.0636-.1818.164-.3073.2676-.007.0068-.7073.682-1.7749.682z"/>
  <path fill="#A2A2A2" d="M19.4015 21.5662l.119.2199.0011-.0006-.1201-.2193zm.1304-.4442l.2188-.1209-.2188.1209zm-.4611-.1385l-.1089-.2251-.0038.0019.1127.2232zm-.707-2.4429h-.2501l.0002.0076.2499-.0076zm0-.7259l-.2485-.0278-.0015.0138v.014h.25zm.0023-.0573l-.2499.0055v.0002l.2499-.0057zm-.0023-.009h-.2504l.0008.0137.2496-.0137zm-.6869-4.68h-.25.25zm.0001.366l-.1633.1893.4134.3565-.0001-.5458h-.25zm-.0001 5.1048l.2499.0074.0159-.5339-.4202.3299.1544.1966zm.2569.6062l-.1811.1723.1811-.1723zM22 15.4135h.25H22zm-4.6591-1.3653l.2014-.1485-.0073-.009-.1941.1575zm.0278.0321l.1771-.1764-.0003-.0003-.1768.1767zm.3082.5516h-.25v.0257l.0052.0251.2448-.0508zm.0004.0019l.25-.0001v-.0256l-.0052-.0251-.2448.0508zm.0007 3.016l.1723.1811.0778-.0739-.0001-.1073-.25.0001zm-.3073.2676l-.1591-.1929-.0079.0065-.0073.0071.1743.1793zM16 9.75c-2.5378 0-4.112 1.0124-5.0449 2.2409-.9231 1.2157-1.2051 2.6247-1.2051 3.4226h.5c0-.7078.2569-2.0056 1.1033-3.1202C12.1899 11.1915 13.6157 10.25 16 10.25v-.5zm-6.25 5.6635c0 2.1302.5187 3.8419 1.5237 5.0248 1.0101 1.1889 2.4841 1.8117 4.3221 1.8117v-.5c-1.7183 0-3.0422-.5775-3.941-1.6354-.9038-1.0638-1.4048-2.6454-1.4048-4.7011h-.5zm5.8458 6.8365c2.9407 0 3.7882-.39 3.9247-.4639l-.2381-.4397c-.0265.0143-.7734.4036-3.6866.4036v.5zm3.9258-.4645c.2833-.1552.3842-.5038.2291-.7844l-.4376.2419c.0207.0374.0095.0814-.0318.104l.2403.4385zm.2291-.7844c-.1559-.2821-.5088-.3781-.7888-.2426l.2177.45c.0554-.0267.1137-.0014.1335.0345l.4376-.2419zm-.7926-.2408c.046-.0232-.6519.3252-3.3623.3252v.5c2.7343 0 3.5276-.3485 3.5876-.3788l-.2253-.4464zm-3.3623.3252c-2.0458 0-3.1906-.8795-3.8395-2.0063-.6608-1.1476-.8194-2.5756-.8194-3.6657h-.5c0 1.1218.1603 2.6547.8862 3.9152.7378 1.2813 2.0475 2.2568 4.2727 2.2568v-.5zm-4.6589-5.672c0 .0017.0027-.2847.0868-.7139.0842-.4291.2484-.9939.5674-1.5548.6289-1.106 1.8758-2.2303 4.4089-2.2303v-.5c-2.7194 0-4.129 1.2266-4.8436 2.4832-.7028 1.236-.7195 2.4739-.7195 2.5158h.5zM16 10.9145c2.2537 0 3.5005.7221 4.1928 1.6129.7016.9027.8703 2.0249.8703 2.8861h.5c0-.9122-.1763-2.1646-.9755-3.193-.8086-1.0403-2.2184-1.806-4.5876-1.806v.5zm5.0631 4.499c0 1.5891-.2392 2.4213-.5263 2.8517-.1398.2095-.2909.3238-.4362.3884-.1481.0658-.3049.0864-.4641.0864v.5c.2007 0 .4335-.0257.6672-.1295.2365-.1052.4596-.284.649-.5678.3713-.5566.6104-1.5125.6104-3.1292h-.5zM19.6365 18.74c-.4943 0-.768-.0764-.9086-.1477-.1493-.0758-.1162-.1232-.1142-.0592l-.4998.0151c.0059.1971.1597.3743.3878.49.2368.1201.5975.2018 1.1348.2018v-.5zm-1.0227-.1994v-.7259h-.5v.7259h.5zm-.0016-.6982c.0035-.0313.0045-.0614.0038-.0907l-.4998.0114c.0002.0101-.0002.0176-.0009.0238l.4969.0555zm.0039-.0904c-.0007-.0279-.0057-.0501-.0095-.064-.002-.0069-.0039-.0126-.0051-.0162-.0012-.0035-.0023-.0063-.0024-.0066-.0005-.0012.0002.0006.0009.0025.0008.0023.0023.0065.0039.012.0032.0109.0081.0302.0095.055l-.4992.0274c.0014.0263.0066.0472.0103.0595.0018.0063.0036.0113.0046.0143.0006.0015.001.0027.0013.0035.0002.0004.0003.0007.0004.0009v.0002l.0001.0001c.0001.0004-.0007-.0017-.0016-.0044-.001-.0028-.0027-.0077-.0044-.014-.0034-.0123-.0082-.0331-.0087-.0593l.4999-.0109zm-.0023-.0036v-4.68h-.5v4.68h.5zm0-4.68c0-.3295-.2734-.5823-.5935-.5823v.5c.0597 0 .0935.0444.0935.0823h.5zm-.5935-.5823c-.32 0-.5934.2528-.5934.5823h.5c0-.0379.0338-.0823.0934-.0823v-.5zm-.5934.5823l.0001.366h.5l-.0001-.3661-.5.0001zm.4134.1767c-.3506-.3024-1.0759-.759-2.2445-.759v.5c1.0265 0 1.6398.3978 1.9179.6376l.3266-.3786zm-2.2445-.759c-1.8966 0-3.0175 1.8008-3.0175 3.3976h.5c0-1.4304.9953-2.8976 2.5175-2.8976v-.5zm-3.0175 3.3976c0 1.15.2377 2.0619.7516 2.6896.5216.637 1.2935.9406 2.2659.9406v-.5c-.864 0-1.4759-.2651-1.879-.7574-.4108-.5017-.6385-1.2798-.6385-2.3728h-.5zm3.0175 3.6302c1.1014 0 1.8895-.5064 2.2355-.7781l-.3088-.3932c-.2998.2354-.9809.6713-1.9267.6713v.5zm1.8313-.9821c-.0041.1353.0233.4682.3256.7859l.3622-.3446c-.183-.1923-.1895-.3788-.1881-.4265l-.4997-.0148zm.3256.7859c.3932.4134 1.0538.5868 1.8838.5868v-.5c-.7871 0-1.2722-.1693-1.5216-.4314l-.3622.3446zm1.8838.5868c.651 0 1.1555-.2144 1.536-.5659.3749-.3461.6145-.8112.77-1.2928.3093-.9583.3075-2.0573.3075-2.6323h-.5c0 .585-.0018 1.6065-.2833 2.4787-.14.4336-.3435.8114-.6334 1.0791-.2842.2625-.666.4332-1.1968.4332v.5zm2.6135-4.491c0-.8362-.1488-2.2512-1.0159-3.4627C20.3559 10.724 18.7733 9.75 16 9.75v.5c2.6421 0 4.0595.9189 4.8275 1.9919.779 1.0883.9225 2.3801.9225 3.1716h.5zm-6.6542 2.9359c-.669 0-1.103-.192-1.3815-.5556-.2902-.3786-.4492-.99-.4492-1.9101h-.5c0 .9582.1618 1.7046.5523 2.2142.402.5248 1.0084.7515 1.7784.7515v-.5zm-1.8307-2.4657c0-.4535.1519-1.0239.4638-1.4748.3074-.4446.7575-.7583 1.3669-.7583v-.5c-.8099 0-1.4001.4272-1.7782.9739-.3736.5403-.5525 1.2114-.5525 1.7592h.5zm1.8307-2.2331c1.1131 0 1.562.5688 1.551.5552l.3882-.3151c-.05-.0616-.6288-.7401-1.9392-.7401v.5zm1.5439.546c.0167.0227.0344.0428.0522.0605l.3536-.3535c-.0024-.0024-.0034-.0037-.0034-.0038l-.4024.2968zm.0518.0602c.0349.0349.1005.113.156.2011.0273.0434.049.0841.0632.1191.007.0172.0113.031.0138.0414.0025.0105.0024.0147.0024.0135h.5c0-.1672-.089-.3336-.1564-.4405-.0744-.1182-.1629-.2254-.2247-.2875l-.3543.3529zm.2406.4259l.0004.0018.4896-.1015-.0004-.0018-.4896.1015zm-.0048-.0489l.0007 3.016.5-.0001-.0007-3.016-.5.0001zm.0785 2.8348c-.0609.0579-.1708.1541-.2942.2559l.3182.3857c.1277-.1054.2476-.21.3205-.2793l-.3445-.3623zm-.3094.2695c.0056-.0054-.6338.6113-1.6006.6113v.5c1.1683 0 1.9296-.7337 1.9492-.7528l-.3486-.3585z" mask="url(#b)"/>
</svg>

<svg width="32" height="32" viewBox="0 0 32 32" fill="none" xmlns="http://www.w3.org/2000/svg">
<mask id="path-1-inside-1" fill="white">
<path d="M16 32C24.8365 32 32 24.8365 32 16C32 7.16345 24.8365 0 16 0C7.1634 0 0 7.16345 0 16C0 24.8366 7.1634 32 16 32ZM16 31C7.72895 31 1 24.271 1 16C1 7.729 7.72895 1 16 1C24.2711 1 31 7.729 31 16C31 24.271 24.271 31 16 31Z"/>
</mask>
<path d="M16 32C24.8365 32 32 24.8365 32 16C32 7.16345 24.8365 0 16 0C7.1634 0 0 7.16345 0 16C0 24.8366 7.1634 32 16 32ZM16 31C7.72895 31 1 24.271 1 16C1 7.729 7.72895 1 16 1C24.2711 1 31 7.729 31 16C31 24.271 24.271 31 16 31Z" fill="#A2A2A2"/>
<path d="M16 33C25.3888 33 33 25.3888 33 16H31C31 24.2843 24.2843 31 16 31V33ZM33 16C33 6.61117 25.3888 -1 16 -1V1C24.2843 1 31 7.71574 31 16H33ZM16 -1C6.61111 -1 -1 6.61117 -1 16H1C1 7.71573 7.71569 1 16 1V-1ZM-1 16C-1 25.3888 6.61111 33 16 33V31C7.71569 31 1 24.2843 1 16H-1ZM16 30C8.28123 30 2 23.7188 2 16H0C0 24.8233 7.17666 32 16 32V30ZM2 16C2 8.28128 8.28124 2 16 2V0C7.17666 0 0 7.17672 0 16H2ZM16 2C23.7188 2 30 8.28128 30 16H32C32 7.17672 24.8233 0 16 0V2ZM30 16C30 23.7188 23.7188 30 16 30V32C24.8233 32 32 24.8233 32 16H30Z" fill="#A2A2A2" mask="url(#path-1-inside-1)"/>
<mask id="path-3-outside-2" maskUnits="userSpaceOnUse" x="9" y="9" width="14" height="14" fill="black">
<rect fill="white" x="9" y="9" width="14" height="14"/>
<path d="M16 10C11.0779 10 10 13.9077 10 15.4135C10 19.5993 12.0394 22 15.5958 22C18.5227 22 19.32 21.6103 19.4015 21.5662C19.5638 21.4773 19.6198 21.281 19.5319 21.122C19.444 20.963 19.2385 20.9024 19.0708 20.9835C19.0637 20.9871 18.3182 21.3355 15.5958 21.3355C11.3248 21.3355 10.6869 17.6254 10.6869 15.4135C10.6869 15.3662 10.7475 10.6645 16 10.6645C20.6229 10.6645 21.3131 13.6401 21.3131 15.4135C21.3131 18.6192 20.3563 18.99 19.6365 18.99C18.6049 18.99 18.3678 18.6737 18.3638 18.5406V17.8147C18.3659 17.7959 18.3666 17.7771 18.3661 17.7574C18.366 17.7543 18.3639 17.7515 18.3638 17.7484V13.0684C18.3638 12.8847 18.2102 12.7361 18.0203 12.7361C17.8305 12.7361 17.6769 12.8847 17.6769 13.0684L17.677 13.4344C17.3626 13.1633 16.6934 12.7361 15.5958 12.7361C13.8864 12.7361 12.8283 14.3701 12.8283 15.8837C12.8283 18.1266 13.7593 19.2639 15.5958 19.2639C16.6194 19.2639 17.354 18.7928 17.6769 18.5392C17.6742 18.6307 17.6912 18.8904 17.9338 19.1454C18.2551 19.4832 18.8279 19.6545 19.6365 19.6545C22 19.6545 22 16.5735 22 15.4135C22 13.7857 21.4154 10 16 10ZM15.5958 18.5994C14.1567 18.5994 13.5151 17.762 13.5151 15.8837C13.5151 14.8824 14.1765 13.4006 15.5958 13.4006C16.8076 13.4006 17.3214 14.0242 17.3409 14.0482C17.3492 14.0596 17.3586 14.0703 17.3687 14.0803C17.4653 14.1774 17.6769 14.4509 17.6769 14.6319L17.6773 14.6338L17.678 17.6498C17.6112 17.7134 17.4962 17.8138 17.3707 17.9174C17.3637 17.9242 16.6634 18.5994 15.5958 18.5994Z"/>
</mask>
<path d="M16 10C11.0779 10 10 13.9077 10 15.4135C10 19.5993 12.0394 22 15.5958 22C18.5227 22 19.32 21.6103 19.4015 21.5662C19.5638 21.4773 19.6198 21.281 19.5319 21.122C19.444 20.963 19.2385 20.9024 19.0708 20.9835C19.0637 20.9871 18.3182 21.3355 15.5958 21.3355C11.3248 21.3355 10.6869 17.6254 10.6869 15.4135C10.6869 15.3662 10.7475 10.6645 16 10.6645C20.6229 10.6645 21.3131 13.6401 21.3131 15.4135C21.3131 18.6192 20.3563 18.99 19.6365 18.99C18.6049 18.99 18.3678 18.6737 18.3638 18.5406V17.8147C18.3659 17.7959 18.3666 17.7771 18.3661 17.7574C18.366 17.7543 18.3639 17.7515 18.3638 17.7484V13.0684C18.3638 12.8847 18.2102 12.7361 18.0203 12.7361C17.8305 12.7361 17.6769 12.8847 17.6769 13.0684L17.677 13.4344C17.3626 13.1633 16.6934 12.7361 15.5958 12.7361C13.8864 12.7361 12.8283 14.3701 12.8283 15.8837C12.8283 18.1266 13.7593 19.2639 15.5958 19.2639C16.6194 19.2639 17.354 18.7928 17.6769 18.5392C17.6742 18.6307 17.6912 18.8904 17.9338 19.1454C18.2551 19.4832 18.8279 19.6545 19.6365 19.6545C22 19.6545 22 16.5735 22 15.4135C22 13.7857 21.4154 10 16 10ZM15.5958 18.5994C14.1567 18.5994 13.5151 17.762 13.5151 15.8837C13.5151 14.8824 14.1765 13.4006 15.5958 13.4006C16.8076 13.4006 17.3214 14.0242 17.3409 14.0482C17.3492 14.0596 17.3586 14.0703 17.3687 14.0803C17.4653 14.1774 17.6769 14.4509 17.6769 14.6319L17.6773 14.6338L17.678 17.6498C17.6112 17.7134 17.4962 17.8138 17.3707 17.9174C17.3637 17.9242 16.6634 18.5994 15.5958 18.5994Z" fill="#A2A2A2"/>
<path d="M19.4015 21.5662L19.5205 21.7861L19.5216 21.7855L19.4015 21.5662ZM19.5319 21.122L19.7507 21.0011L19.7507 21.0011L19.5319 21.122ZM19.0708 20.9835L18.9619 20.7584L18.9581 20.7603L19.0708 20.9835ZM18.3638 18.5406H18.1137L18.1139 18.5482L18.3638 18.5406ZM18.3638 17.8147L18.1153 17.7869L18.1138 17.8007V17.8147H18.3638ZM18.3661 17.7574L18.1162 17.7629L18.1162 17.7631L18.3661 17.7574ZM18.3638 17.7484H18.1134L18.1142 17.7621L18.3638 17.7484ZM17.6769 13.0684L17.4269 13.0684L17.4269 13.0684L17.6769 13.0684ZM17.677 13.4344L17.5137 13.6237L17.9271 13.9802L17.927 13.4344L17.677 13.4344ZM17.6769 18.5392L17.9268 18.5466L17.9427 18.0127L17.5225 18.3426L17.6769 18.5392ZM17.9338 19.1454L17.7527 19.3177L17.7527 19.3177L17.9338 19.1454ZM22 15.4135L22.25 15.4135V15.4135L22 15.4135ZM17.3409 14.0482L17.5423 13.8997L17.535 13.8907L17.3409 14.0482ZM17.3687 14.0803L17.5458 13.9039L17.5455 13.9036L17.3687 14.0803ZM17.6769 14.6319H17.4269V14.6576L17.4321 14.6827L17.6769 14.6319ZM17.6773 14.6338L17.9273 14.6337L17.9273 14.6081L17.9221 14.583L17.6773 14.6338ZM17.678 17.6498L17.8503 17.8309L17.9281 17.757L17.928 17.6497L17.678 17.6498ZM17.3707 17.9174L17.2116 17.7245L17.2037 17.731L17.1964 17.7381L17.3707 17.9174ZM16 9.75C13.4622 9.75 11.888 10.7624 10.9551 11.9909C10.032 13.2066 9.75 14.6156 9.75 15.4135H10.25C10.25 14.7057 10.5069 13.4079 11.3533 12.2933C12.1899 11.1915 13.6157 10.25 16 10.25V9.75ZM9.75 15.4135C9.75 17.5437 10.2687 19.2554 11.2737 20.4383C12.2838 21.6272 13.7578 22.25 15.5958 22.25V21.75C13.8775 21.75 12.5536 21.1725 11.6548 20.1146C10.751 19.0508 10.25 17.4692 10.25 15.4135H9.75ZM15.5958 22.25C18.5365 22.25 19.384 21.86 19.5205 21.7861L19.2824 21.3464C19.2559 21.3607 18.509 21.75 15.5958 21.75V22.25ZM19.5216 21.7855C19.8049 21.6303 19.9058 21.2817 19.7507 21.0011L19.3131 21.243C19.3338 21.2804 19.3226 21.3244 19.2813 21.347L19.5216 21.7855ZM19.7507 21.0011C19.5948 20.719 19.2419 20.623 18.9619 20.7585L19.1796 21.2085C19.235 21.1818 19.2933 21.2071 19.3131 21.243L19.7507 21.0011ZM18.9581 20.7603C19.0041 20.7371 18.3062 21.0855 15.5958 21.0855V21.5855C18.3301 21.5855 19.1234 21.237 19.1834 21.2067L18.9581 20.7603ZM15.5958 21.0855C13.55 21.0855 12.4052 20.206 11.7563 19.0792C11.0955 17.9316 10.9369 16.5036 10.9369 15.4135H10.4369C10.4369 16.5353 10.5972 18.0682 11.3231 19.3287C12.0609 20.61 13.3706 21.5855 15.5958 21.5855V21.0855ZM10.9369 15.4135C10.9369 15.4152 10.9396 15.1288 11.0237 14.6996C11.1079 14.2705 11.2721 13.7057 11.5911 13.1448C12.22 12.0388 13.4669 10.9145 16 10.9145V10.4145C13.2806 10.4145 11.871 11.6411 11.1564 12.8977C10.4536 14.1337 10.4369 15.3716 10.4369 15.4135H10.9369ZM16 10.9145C18.2537 10.9145 19.5005 11.6366 20.1928 12.5274C20.8944 13.4301 21.0631 14.5523 21.0631 15.4135H21.5631C21.5631 14.5013 21.3868 13.2489 20.5876 12.2205C19.779 11.1802 18.3692 10.4145 16 10.4145V10.9145ZM21.0631 15.4135C21.0631 17.0026 20.8239 17.8348 20.5368 18.2652C20.397 18.4747 20.2459 18.589 20.1006 18.6536C19.9525 18.7194 19.7957 18.74 19.6365 18.74V19.24C19.8372 19.24 20.07 19.2143 20.3037 19.1105C20.5402 19.0053 20.7633 18.8265 20.9527 18.5427C21.324 17.9861 21.5631 17.0302 21.5631 15.4135H21.0631ZM19.6365 18.74C19.1422 18.74 18.8685 18.6636 18.7279 18.5923C18.5786 18.5165 18.6117 18.4691 18.6137 18.5331L18.1139 18.5482C18.1198 18.7453 18.2736 18.9225 18.5017 19.0382C18.7385 19.1583 19.0992 19.24 19.6365 19.24V18.74ZM18.6138 18.5406V17.8147H18.1138V18.5406H18.6138ZM18.6122 17.8424C18.6157 17.8111 18.6167 17.781 18.616 17.7517L18.1162 17.7631C18.1164 17.7732 18.116 17.7807 18.1153 17.7869L18.6122 17.8424ZM18.6161 17.752C18.6154 17.7241 18.6104 17.7019 18.6066 17.688C18.6046 17.6811 18.6027 17.6754 18.6015 17.6718C18.6003 17.6683 18.5992 17.6655 18.5991 17.6652C18.5986 17.664 18.5993 17.6658 18.6 17.6677C18.6008 17.67 18.6023 17.6742 18.6039 17.6797C18.6071 17.6906 18.612 17.7099 18.6134 17.7347L18.1142 17.7621C18.1156 17.7884 18.1208 17.8093 18.1245 17.8216C18.1263 17.8279 18.1281 17.8329 18.1291 17.8359C18.1297 17.8374 18.1301 17.8386 18.1304 17.8394C18.1306 17.8398 18.1307 17.8401 18.1308 17.8403C18.1308 17.8404 18.1308 17.8405 18.1308 17.8405C18.1309 17.8406 18.1309 17.8406 18.1309 17.8406C18.131 17.841 18.1302 17.8389 18.1293 17.8362C18.1283 17.8334 18.1266 17.8285 18.1249 17.8222C18.1215 17.8099 18.1167 17.7891 18.1162 17.7629L18.6161 17.752ZM18.6138 17.7484V13.0684H18.1138V17.7484H18.6138ZM18.6138 13.0684C18.6138 12.7389 18.3404 12.4861 18.0203 12.4861V12.9861C18.08 12.9861 18.1138 13.0305 18.1138 13.0684H18.6138ZM18.0203 12.4861C17.7003 12.4861 17.4269 12.7389 17.4269 13.0684H17.9269C17.9269 13.0305 17.9607 12.9861 18.0203 12.9861V12.4861ZM17.4269 13.0684L17.427 13.4344L17.927 13.4344L17.9269 13.0683L17.4269 13.0684ZM17.8403 13.2451C17.4897 12.9427 16.7644 12.4861 15.5958 12.4861V12.9861C16.6223 12.9861 17.2356 13.3839 17.5137 13.6237L17.8403 13.2451ZM15.5958 12.4861C13.6992 12.4861 12.5783 14.2869 12.5783 15.8837H13.0783C13.0783 14.4533 14.0736 12.9861 15.5958 12.9861V12.4861ZM12.5783 15.8837C12.5783 17.0337 12.816 17.9456 13.3299 18.5733C13.8515 19.2103 14.6234 19.5139 15.5958 19.5139V19.0139C14.7318 19.0139 14.1199 18.7488 13.7168 18.2565C13.306 17.7548 13.0783 16.9767 13.0783 15.8837H12.5783ZM15.5958 19.5139C16.6972 19.5139 17.4853 19.0075 17.8313 18.7358L17.5225 18.3426C17.2227 18.578 16.5416 19.0139 15.5958 19.0139V19.5139ZM17.4271 18.5318C17.423 18.6671 17.4504 19 17.7527 19.3177L18.1149 18.9731C17.9319 18.7808 17.9254 18.5943 17.9268 18.5466L17.4271 18.5318ZM17.7527 19.3177C18.1459 19.7311 18.8065 19.9045 19.6365 19.9045V19.4045C18.8494 19.4045 18.3643 19.2352 18.1149 18.9731L17.7527 19.3177ZM19.6365 19.9045C20.2875 19.9045 20.792 19.6901 21.1725 19.3386C21.5474 18.9925 21.787 18.5274 21.9425 18.0458C22.2518 17.0875 22.25 15.9885 22.25 15.4135H21.75C21.75 15.9985 21.7482 17.02 21.4667 17.8922C21.3267 18.3258 21.1232 18.7036 20.8333 18.9713C20.5491 19.2338 20.1673 19.4045 19.6365 19.4045V19.9045ZM22.25 15.4135C22.25 14.5773 22.1012 13.1623 21.2341 11.9508C20.3559 10.724 18.7733 9.75 16 9.75V10.25C18.6421 10.25 20.0595 11.1689 20.8275 12.2419C21.6065 13.3302 21.75 14.622 21.75 15.4135L22.25 15.4135ZM15.5958 18.3494C14.9268 18.3494 14.4928 18.1574 14.2143 17.7938C13.9241 17.4152 13.7651 16.8038 13.7651 15.8837H13.2651C13.2651 16.8419 13.4269 17.5883 13.8174 18.0979C14.2194 18.6227 14.8258 18.8494 15.5958 18.8494V18.3494ZM13.7651 15.8837C13.7651 15.4302 13.917 14.8598 14.2289 14.4089C14.5363 13.9643 14.9864 13.6506 15.5958 13.6506V13.1506C14.7859 13.1506 14.1957 13.5778 13.8176 14.1245C13.444 14.6648 13.2651 15.3359 13.2651 15.8837H13.7651ZM15.5958 13.6506C16.7089 13.6506 17.1578 14.2194 17.1468 14.2058L17.535 13.8907C17.485 13.8291 16.9062 13.1506 15.5958 13.1506V13.6506ZM17.1397 14.1966C17.1564 14.2193 17.1741 14.2394 17.1919 14.2571L17.5455 13.9036C17.5431 13.9012 17.5421 13.8999 17.5421 13.8998L17.1397 14.1966ZM17.1915 14.2568C17.2264 14.2917 17.292 14.3698 17.3475 14.4579C17.3748 14.5013 17.3965 14.542 17.4107 14.577C17.4177 14.5942 17.422 14.608 17.4245 14.6184C17.427 14.6289 17.4269 14.6331 17.4269 14.6319H17.9269C17.9269 14.4647 17.8379 14.2983 17.7705 14.1914C17.6961 14.0732 17.6076 13.966 17.5458 13.9039L17.1915 14.2568ZM17.4321 14.6827L17.4325 14.6845L17.9221 14.583L17.9217 14.5812L17.4321 14.6827ZM17.4273 14.6338L17.428 17.6498L17.928 17.6497L17.9273 14.6337L17.4273 14.6338ZM17.5058 17.4686C17.4449 17.5265 17.335 17.6227 17.2116 17.7245L17.5298 18.1102C17.6575 18.0048 17.7774 17.9002 17.8503 17.8309L17.5058 17.4686ZM17.1964 17.7381C17.202 17.7327 16.5626 18.3494 15.5958 18.3494V18.8494C16.7641 18.8494 17.5254 18.1157 17.545 18.0966L17.1964 17.7381Z" fill="#A2A2A2" mask="url(#path-3-outside-2)"/>
</svg>
